Adwaita++/devices/16/camera-video.svg

<svg height="16" width="16" xmlns="http://www.w3.org/2000/svg">
  <g fill="#474747">
    <path d="m6.5 1a3.515 3.515 0 0 0 -3.5 3.5c0 1.921 1.579 3.5 3.5 3.5s3.5-1.579 3.5-3.5-1.579-3.5-3.5-3.5zm0 2c.84 0 1.5.66 1.5 1.5s-.66 1.5-1.5 1.5-1.5-.66-1.5-1.5.66-1.5 1.5-1.5z"/>
    <path d="m12.5 1a3.515 3.515 0 0 0 -3.5 3.5c0 1.921 1.579 3.5 3.5 3.5s3.5-1.579 3.5-3.5-1.579-3.5-3.5-3.5zm0 2c.84 0 1.5.66 1.5 1.5s-.66 1.5-1.5 1.5-1.5-.66-1.5-1.5.66-1.5 1.5-1.5z"/>
    <path d="m4 6v7c0 .833.564 1.525 1.053 1.77.488.244.947.23.947.23h7s.459.014.947-.23c.489-.245 1.053-.937 1.053-1.77v-7h-1zm2 2h7v5h-7z" fill-rule="evenodd"/>
    <path d="m.988 7a1 1 0 0 0 -.988 1v4a1 1 0 0 0 1.555.832l3-2a1 1 0 0 0 0-1.664l-3-2a1 1 0 0 0 -.567-.168zm1.012 2.87.197.13-.197.13z"/>
    <path d="m1 12h-1v1h1zm0-5h-1v1h1zm0 1 3 2-3 2zm13 0h2v2l-1 1h-1z"/>
    <path d="m14 7v6c0 1-1 1-1 1h-7s-1 0-1-1v-6z" fill-rule="evenodd"/>
  </g>
</svg>

<svg xmlns="http://www.w3.org/2000/svg" width="16" height="16">
    <g fill="#2e3436">
        <path d="M6.5 1A3.515 3.515 0 0 0 3 4.5C3 6.421 4.579 8 6.5 8S10 6.421 10 4.5 8.421 1 6.5 1zm0 2C7.34 3 8 3.66 8 4.5S7.34 6 6.5 6 5 5.34 5 4.5 5.66 3 6.5 3z" style="line-height:normal;font-variant-ligatures:normal;font-variant-position:normal;font-variant-caps:normal;font-variant-numeric:normal;font-variant-alternates:normal;font-feature-settings:normal;text-indent:0;text-align:start;text-decoration-line:none;text-decoration-style:solid;text-decoration-color:#000;text-transform:none;text-orientation:mixed;shape-padding:0;isolation:auto;mix-blend-mode:normal" color="#000" font-weight="400" font-family="sans-serif" white-space="normal" overflow="visible"/>
        <path d="M12.5 1A3.515 3.515 0 0 0 9 4.5C9 6.421 10.579 8 12.5 8S16 6.421 16 4.5 14.421 1 12.5 1zm0 2c.84 0 1.5.66 1.5 1.5S13.34 6 12.5 6 11 5.34 11 4.5 11.66 3 12.5 3z" style="line-height:normal;font-variant-ligatures:normal;font-variant-position:normal;font-variant-caps:normal;font-variant-numeric:normal;font-variant-alternates:normal;font-feature-settings:normal;text-indent:0;text-align:start;text-decoration-line:none;text-decoration-style:solid;text-decoration-color:#000;text-transform:none;text-orientation:mixed;shape-padding:0;isolation:auto;mix-blend-mode:normal" color="#000" font-weight="400" font-family="sans-serif" white-space="normal" overflow="visible"/>
        <path d="M4 6v7c0 .833.564 1.525 1.053 1.77.488.244.947.23.947.23h7s.459.014.947-.23C14.436 14.525 15 13.833 15 13V6h-1zm2 2h7v5H6z" style="line-height:normal;font-variant-ligatures:normal;font-variant-position:normal;font-variant-caps:normal;font-variant-numeric:normal;font-variant-alternates:normal;font-feature-settings:normal;text-indent:0;text-align:start;text-decoration-line:none;text-decoration-style:solid;text-decoration-color:#000;text-transform:none;text-orientation:mixed;shape-padding:0;isolation:auto;mix-blend-mode:normal" color="#000" font-weight="400" font-family="sans-serif" white-space="normal" overflow="visible" fill-rule="evenodd"/>
        <path d="M.988 7A1 1 0 0 0 0 8v4a1 1 0 0 0 1.555.832l3-2a1 1 0 0 0 0-1.664l-3-2A1 1 0 0 0 .988 7zM2 9.87l.197.13-.197.13z" style="line-height:normal;font-variant-ligatures:normal;font-variant-position:normal;font-variant-caps:normal;font-variant-numeric:normal;font-variant-alternates:normal;font-feature-settings:normal;text-indent:0;text-align:start;text-decoration-line:none;text-decoration-style:solid;text-decoration-color:#000;text-transform:none;text-orientation:mixed;shape-padding:0;isolation:auto;mix-blend-mode:normal;marker:none" color="#000" font-weight="400" font-family="sans-serif" white-space="normal" overflow="visible"/>
        <path d="M1 12H0v1h1zM1 7H0v1h1zM1 8l3 2-3 2zM14 8h2v2l-1 1h-1z" style="marker:none" color="#000" overflow="visible"/>
        <path d="M14 7v6c0 1-1 1-1 1H6s-1 0-1-1V7z" fill-rule="evenodd"/>
    </g>
</svg>
